svg/nature/cat_fill.svg

<?xml version="1.0" encoding="UTF-8"?>
<svg width="24px" height="24px" viewBox="0 0 24 24" version="1.1" xmlns="http://www.w3.org/2000/svg" xmlns:xlink="http://www.w3.org/1999/xlink">
    <title>cat_fill</title>
    <g id="Icon" stroke="none" stroke-width="1" fill="none" fill-rule="evenodd">
        <g id="Nature" transform="translate(-48.000000, -144.000000)">
            <g id="cat_fill" transform="translate(48.000000, 144.000000)">
                <path d="M24,0 L24,24 L0,24 L0,0 L24,0 Z M12.5935,23.2578 L12.5819,23.2595 L12.5109,23.295 L12.4919,23.2987 L12.4767,23.295 L12.4057,23.2595 C12.3958,23.2564 12.387,23.259 12.3821,23.2649 L12.378,23.2758 L12.3609,23.7031 L12.3659,23.7235 L12.3769,23.7357 L12.4805,23.8097 L12.4953,23.8136 L12.5071,23.8097 L12.6107,23.7357 L12.6233,23.7197 L12.6267,23.7031 L12.6096,23.2758 C12.6076,23.2657 12.601,23.2593 12.5935,23.2578 Z M12.8584,23.1453 L12.8445,23.1473 L12.6598,23.2397 L12.6499,23.2499 L12.6472,23.2611 L12.6651,23.6906 L12.6699,23.7034 L12.6784,23.7105 L12.8793,23.8032 C12.8914,23.8069 12.9022,23.803 12.9078,23.7952 L12.9118,23.7812 L12.8777,23.1665 C12.8753,23.1546 12.8674,23.147 12.8584,23.1453 Z M12.143,23.1473 C12.1332,23.1424 12.1222,23.1453 12.1156,23.1526 L12.1099,23.1665 L12.0758,23.7812 C12.0751,23.7927 12.0828,23.8019 12.0926,23.8046 L12.1083,23.8032 L12.3092,23.7105 L12.3186,23.7024 L12.3225,23.6906 L12.3404,23.2611 L12.3372,23.2485 L12.3278,23.2397 L12.143,23.1473 Z" id="MingCute" fill-rule="nonzero"></path>
                <path d="M18.2955,3.0447 C18.6499,3.15433 18.9145,3.45113 18.9829,3.81574 L20.3243,10.9699 C20.4531,11.6568 20.4954,12.3369 20.4598,12.9999999 L21,12.9999999 C21.5523,12.9999999 22,13.4477 22,13.9999999 C22,14.5523 21.5523,14.9999999 21,14.9999999 L20.1056,14.9999999 C19.9612,15.472 19.7763,15.9278 19.5546,16.3631 L20.6247,17.2191 C21.056,17.5641 21.1259,18.1934 20.7809,18.6247 C20.4359,19.056 19.8066,19.1259 19.3753,18.7809 L18.4393,18.0321 C16.899,19.8355 14.6071,20.9999999 12,20.9999999 C9.39284,20.9999999 7.10098,19.8355 5.56069,18.0321 L4.6247,18.7809 C4.19343,19.1259 3.56414,19.056 3.21913,18.6247 C2.87412,18.1934 2.94404,17.5641 3.3753,17.2191 L4.44534,16.3631 C4.22364,15.9279 4.03875,15.472 3.89441,14.9999999 L3,14.9999999 C2.44772,14.9999999 2,14.5523 2,13.9999999 C2,13.4477 2.44772,12.9999999 3,12.9999999 L3.5402,12.9999999 C3.50454,12.3369 3.54691,11.6568 3.67571,10.9699 L5.01712,3.81574 C5.08548,3.45113 5.35006,3.15433 5.70444,3.0447 C6.05883,2.93506 6.44479,3.03061 6.7071,3.29292 L9.12131,5.70713 C9.30884,5.89467 9.5632,6.00003 9.82842,6.00003 L14.1716,6.00003 C14.4368,6.00003 14.6911,5.89467 14.8787,5.70713 L17.2929,3.29292 C17.5552,3.03061 17.9411,2.93506 18.2955,3.0447 Z M12.5528,14.6056 L12,14.882 L11.4472,14.6056 C10.9532,14.3586 10.3526,14.5588 10.1056,15.0528 C9.85858,15.5468 10.0588,16.1474 10.5528,16.3944 L11.1056,16.6708 C11.6686,16.9523 12.3314,16.9523 12.8944,16.6708 L13.4472,16.3944 C13.9412,16.1474 14.1414,15.5468 13.8944,15.0528 C13.6474,14.5588 13.0468,14.3586 12.5528,14.6056 Z M9.5,10 C8.67157,10 8,10.6716 8,11.5 C8,12.3284 8.67157,13 9.5,13 C10.3284,13 11,12.3284 11,11.5 C11,10.6716 10.3284,10 9.5,10 Z M14.5,10 C13.6716,10 13,10.6716 13,11.5 C13,12.3284 13.6716,13 14.5,13 C15.3284,13 16,12.3284 16,11.5 C16,10.6716 15.3284,10 14.5,10 Z" id="形状" fill="#09244B"></path>
            </g>
        </g>
    </g>
</svg>

<svg xmlns="http://www.w3.org/2000/svg" width="24" height="24"><g fill="none" fill-rule="evenodd"><path d="M24 0v24H0V0h24ZM12.594 23.258l-.012.002-.071.035-.02.004-.014-.004-.071-.036c-.01-.003-.019 0-.024.006l-.004.01-.017.428.005.02.01.013.104.074.015.004.012-.004.104-.074.012-.016.004-.017-.017-.427c-.002-.01-.009-.017-.016-.018Zm.264-.113-.014.002-.184.093-.01.01-.003.011.018.43.005.012.008.008.201.092c.012.004.023 0 .029-.008l.004-.014-.034-.614c-.003-.012-.01-.02-.02-.022Zm-.715.002a.023.023 0 0 0-.027.006l-.006.014-.034.614c0 .012.007.02.017.024l.015-.002.201-.093.01-.008.003-.011.018-.43-.003-.012-.01-.01-.184-.092Z"/><path fill="#09244B" d="M18.296 3.045a1 1 0 0 1 .687.77l1.341 7.155c.13.687.171 1.367.136 2.03H21a1 1 0 1 1 0 2h-.894c-.145.472-.33.928-.551 1.363l1.07.856a1 1 0 1 1-1.25 1.562l-.936-.749A8.427 8.427 0 0 1 12 21a8.427 8.427 0 0 1-6.44-2.968l-.935.749a1 1 0 1 1-1.25-1.562l1.07-.856A8.442 8.442 0 0 1 3.895 15H3a1 1 0 1 1 0-2h.54a8.52 8.52 0 0 1 .136-2.03l1.341-7.154a1 1 0 0 1 1.69-.523l2.414 2.414A1 1 0 0 0 9.828 6h4.344a1 1 0 0 0 .707-.293l2.414-2.414a1 1 0 0 1 1.003-.248Zm-5.743 11.56-.553.277-.553-.276a1 1 0 1 0-.894 1.788l.553.277a2 2 0 0 0 1.788 0l.553-.277a1 1 0 1 0-.894-1.788ZM9.5 10a1.5 1.5 0 1 0 0 3 1.5 1.5 0 0 0 0-3Zm5 0a1.5 1.5 0 1 0 0 3 1.5 1.5 0 0 0 0-3Z"/></g></svg>
